X:1
T:Title
%%score { ( 1 4 5 ) | ( 2 3 ) }
L:1/8
M:4/4
K:Bb
V:1 treble nm="Grand Piano"
V:4 treble 
V:5 treble 
V:2 bass 
V:3 bass 
V:1
 z4 z2[Q:1/4=100] d2 | [Ec]BAB F2 [FG]2 | [EB]2 [EA]4 e2 | [Fd]c=Bc [A,EG]2 [EA]2 | %4
 [DG]2 B,2 B,2 d2 | [Ec]BAB F2 [C^F]2 | [CA]2 z2 z edc | c2 B4[K:bass][K:treble] z2 | %8
[M:11/16] [DB]/-[DB]/-[DB]/-[DB]/-[DB]/-[DB]/-[DB]/-[DB]-<[DB] |[M:3/8] ddd | %10
[M:4/4] [Ae]2 [EA]4 z2 | B,B,B,B, z ddd | [Ae]2 [EA]4 z2 | %13
[M:17/16] [Fd]/-[Fd]/-[Fd]/-[Fd]/-[Fd]/-[Fd]/-[Fd]/-[Fd]-<[Fd] z/ z/ z/ z/ z | %14
[M:4/4] e2 [Ge]2- [Ge][EG][GB][Gc] | d2 d2- dfed | cdcG B2 A2 |[M:3/4] [DB]6 |] %18
V:2
 z4 z2 F2 | z DCD [D,B,]2 [_D,=B,]2 | [C,C]2 [C,F,]4 G2 | z EDE F,2 F,,2 | B,,2 F,2 F,2 F2 | %5
 z DCD [D,B,]2 [D,,D,]2 | [E,,E,]2 [E,G,]2 z[K:treble] GFE | .[F,B,]2 z2 z4 | %8
[M:11/16] [B,,F,]-<[B,,F,]F,,-<F,,B,,3/2 |[M:3/8][K:treble] FF[B,F] | %10
[M:4/4][K:bass] [F,C]F,F,F, F,EEF, | B,,B,,D,F, B,[K:treble]FF[B,F] | [F,C]F,F,F, z E z A, | %13
[M:17/16] B,F,D,C,B,,3/2[K:treble][B,DF][A,CF][_A,B,F] | %14
[M:4/4][K:bass] [G,B,E]2 [E,B,]2- [E,B,][E,B,][E,B,][E,B,] | %15
 [B,F]2 [B,F]2- [B,F][B,DF][A,CF][B,F] | [E,G,E]3 [=E,B,C] [F,B,D]2 [F,CE]2 |[M:3/4] [B,,B,]6 |] %18
V:3
 x8 | B,,2 [F,B,]2 z4 | x8 | F,,2 [F,A,]2 z4 | x8 | B,,2 [F,B,]2 z4 | z4 E,2[K:treble] z2 | %7
 D2- [B,,D-]2 D2 [F,,F,]2 |[M:11/16] x11/2 |[M:3/8][K:treble] x3 |[M:4/4][K:bass] x8 | %11
 x5[K:treble] x3 | z4 F,2 F,2 |[M:17/16] x11/2[K:treble] x3 |[M:4/4][K:bass] x8 | x8 | x8 | %17
[M:3/4] x6 |] %18
V:4
 x8 | x8 | x8 | x8 | z2 [DF]4 z2 | x8 | z2 [B,G]4 z2 | z D, z[K:bass] G,, z[K:treble] G[CA][Fd] | %8
[M:11/16] z/ z/ z/ z/ z/ z/ z F,3/2 |[M:3/8] x3 |[M:4/4] z CCC CGA[A,G] | [DG]2 [DF]4 z2 | %12
 z CCC z G[CEA][Ge] |[M:17/16] z B,B,B,B,3/2Bcd |[M:4/4] x8 | x8 | x8 |[M:3/4] x6 |] %18
V:5
 x8 | x8 | x8 | x8 | x8 | x8 | z4 G,2 z2 | z4[K:bass] F,,2[K:treble] z2 |[M:11/16] x11/2 | %9
[M:3/8] x3 |[M:4/4] x8 | x8 | z4 C2 z2 |[M:17/16] x17/2 |[M:4/4] x8 | x8 | x8 |[M:3/4] x6 |] %18

